X:3
T:Andy's Schottische
C:Andy De Jarlis
M:4/4
L:1/8
Z:abc by Bruce Osborne - bosborne@kos.net
K:G
B3/2c/|d2 g3/2f/ g2 B2|c3/2d/c3/2B/ A2 A3/2B/|c2 a3/2^g/ a3 =g|f3/2g/f3/2e/ d2 B3/2c/|!
d2 g3/2f/ g2 B2|c3/2d/c3/2B/ A2 A2|f3/2g/f3/2e/ d3/2c/B3/2A/|G2 B2 G2:|!
K:D
f3/2g/|a2 a2 a2 (3AB^c|d3/2[d/f/][d3/2f3/2][d/ f/] [d2 f2] e3/2d/|^c3/2d/e3/2f/ g2 f3/2g/|b3/2a/^g3/2a/ f2 f3/2^g/|!
a2 a2 a2 (3AB^c|[d3/2f3/2][d/f/][d3/2f3/2][d/ f/] [d2 f2] e3/2d/|^c3/2d/e3/2f/ g3/2e/^c3/2e/|d2 f2 d2:|
